X:1
T:Silly Ass
T:Two Step
T:J. B. LaFreniere
%%score { 1 | ( 2 3 ) }
L:1/8
M:2/4
K:C
V:1 treble nm="Piano" snm="Pno."
V:2 treble 
V:3 treble 
V:1
"^ff" e'/!>![c'g']e'/ [c'g']/e'/[c'g']/ z/ |"^pp" e/!>![cg]e/ [ca]/e/[cg]/ z/ | %2
!p! [FG]/!>![FG]!<(![FG]/ [FA][F^A]!<)! | [FGB] z !>![GBdg] z |: e/!>![cg]e/ [cg]/e/"^mf"[cg]/e/ | %5
 d/!>![Bg]d/ [Bg]!>![Bg] | c/!>![Ae]c/ [Ae]/c/[Ae]/c/ | B/!>![^Ge]B/ [Ge]!>![Ge] | %8
 A/!>![Fc]A/ [Fc]/A/[Fc]/A/ | G/!>![Ec]G/ [Ec][Ec] | z/ !>![^Fe]c/ !>![Fe]!>![Fe] | %11
 z/ !>![=Fd]B/ !>![FA]!>![FG] | e/!>![cg]e/ [cg]/e/[cg]/e/ | d/!>![Bg]d/ [Bg]!>![Bg] | %14
 c/!>![Ae]c/ [Ae]/c/[Ae]/c/ | B/!>![^Gd]B/ [Gd]!>![Gd] | A/!>![Fc]A/ [Fc]/A/[Fc]/A/ | %17
 G/!>![Ec]G/ [Ec]!>![Ec] | z/ !>![^Fe]c/ !>![^Fe]!>![=Fd] | [Ec] z z2 :| %20
[K:G]"^f" d/!>!ed/ f/e/d/c/ | B/[Ge]B/ [Ge]2 | z/ !>![Af]c/ !>![Af]2 | z/ !>![Bg]d/ !>![Bg]2 | %24
 d/!>!ed/ f/e/d/c/ | B/[Ge]B/ [Ge]2 | z/ [Af][Gd]/ [Af]/d/e/f/ | [Bdg][cf] [d=f] z |: %28
[K:C]"^mf" e/!>![cg]e/ [cg]/e/[cg]/e/ | d/!>![Bg]d/ [Bg]!>![Bg] | c/!>![Ae]c/ [Ae]/c/[Ae]/c/ | %31
 B/!>![^Ge]B/ [Ge]!>![Ge] | A/!>![Fc]A/ [Fc]/A/[Fc]/A/ | G/!>![Ec]G/ [Ec]!>![Ec] |1 %34
 z/ !>![^Fe]c/ [Fe][Fe] || z/ !>![=Fd]B/ !>![FA]!>![FG] :| z/ !>![^Fe]c/ !>![^Fe]!>![=Fd] | %37
 [Ec] z"^sf" !>!!fermata![cegc'] z |:[K:F]"^Trio""^ff" z!>(! !>![Acf]2 !>![FAd]-!>)! | %39
 [FAd] !>![FAc]2 !>![FA] | [FA]!p!(D/E/) F/D/E/F/ | D/E/F/D/ E/F/D/E/ | %42
"^ff" F!>![Acf] z !>![FAd]- |!>(! [FAd] !>![FAc]2 !>![FA]!>)! | z!p! (G/A/) B/G/A/B/ | %45
 G/A/B/G/ A/B/G/A/ |"^ff" B!>![Bdg] z!>(! !>![Bd]-!>)! | [Bd](3B/c/B/ AG | %48
"^ff" z !>![Acf]2 [FAd]- | !>![FAd]!>(!(3A/B/A/ GF!>)! |!p! GA/G/- G/AD/ | GA/G/- G/AD/ |1 %52
 GA/G/- G/AG/ ||"^ff" !>![dd']!>![^c^c'] !>![=c=c'] z ||2 cd/c/- c/dc/ || %55
 [Acf]2"^sf" !>![fac'f'] z |] %56
V:2
 x x x2 | x4 |[K:bass] x4 | x4 |: C,[G,CE] G,,[G,CE] | D,[G,B,DF] G,,[G,B,DF] | A,[CE] E,[CE] | %7
 B,[DE] E,[DE] | F,[A,C] F,[A,C] | E,[G,C] E,C | D,[^F,A,C] F,[A,C] | G,[B,D] G,[B,D] | %12
 C,[G,CE] G,,[G,CE] | D,[G,B,DF] G,,[G,B,DF] | A,[CE] E,[CE] | B,[DE] E,[DE] | F,[A,C] F,[A,C] | %17
 E,[G,C] E,C | D,[^F,A,C] D,[=F,G,B,] | [C,E,G,C][B,,B,] [A,,A,][G,,G,] :|[K:G] [F,,F,]C D,[F,C] | %21
 G,[B,D][B,D] !>![^G,,^G,] | !>![A,,A,][CDF][CDF] !>![^A,,^A,] | !>![B,,B,][B,DG][B,DG] [_B,,_B,] | %24
 [A,,A,][CDF] D,[F,A,C] | G,[B,D] [B,D][^G,,^G,] | [A,,A,][CDF] D,[F,A,C] | %27
 [G,,G,][A,,A,][B,,B,] z |:[K:C] C,[G,CE] G,,[G,CE] | D,[G,B,D] G,,[G,B,D] | A,[CE] E,[CE] | %31
 B,[DE] E,[DE] | F,[A,C] F,[A,C] | E,[G,C] E,[G,C] |1 D,[^F,A,C] F,[A,C] || G,[B,D] G,[B,D] :| %36
 D,[^F,A,C] D,[=F,G,B,] | [E,G,C] z !>!!fermata![C,,C,] z |:[K:F] F,[A,C] C,[F,A,C] | %39
 F,[A,C] C,[F,A,C] | D,[F,A,] A,,[D,F,] | D,[F,A,] A,,[D,F,] | F,[A,C] C,[F,A,C] | %43
 F,[A,C] C,[F,A,C] | G,[B,D] D,[G,B,D] | G,[B,D] D,[G,B,] | B,,[D,G,] D,[G,B,] | %47
 B,,!p![D,G,] [D,G,][D,G,] | F,[A,C] C,[F,A,C] | F,[A,C] [A,C][A,C] | D,[F,G,=B,] G,,[D,F,G,B,] | %51
 D,[F,G,=B,] G,,[D,F,G,B,] |1 C,[E,G,_B,] E,[G,B,] || !>![D,D]!>![^C,^C] !>![=C,=C] z ||2 %54
 C,[E,G,_B,] E,[G,B,C] || [F,A,C]2 !>![F,,F,] z |] %56
V:3
 e/!>!ge/ a/e/g/ z/ | E/!>!AE/ A/E/G/ z/ |[K:bass] [B,,B,]/!>![B,,B,][B,,B,]/ [A,,A,][^G,,^G,] | %3
 [=G,,=G,] z"^sf" !>![G,,,G,,] z |: x4 | x4 | x4 | x4 | x4 | x4 | x4 | x4 | x4 | x4 | x4 | x4 | %16
 x4 | x4 | x4 | x4 :|[K:G] x4 | x4 | x4 | x4 | x4 | x4 | x4 | x4 |:[K:C] x4 | x4 | x4 | x4 | x4 | %33
 x4 |1 x4 || x4 :| x4 | x4 |:[K:F] x4 | x4 | x4 | x4 | x4 | x4 | x4 | x4 | x4 | x4 | x4 | x4 | x4 | %51
 x4 |1 x4 || x4 ||2 x4 || x4 |] %56

